logos/vultr.svg

<?xml version="1.0" encoding="UTF-8"?>
<svg width="512px" height="123px" viewBox="0 0 512 123" version="1.1" xmlns="http://www.w3.org/2000/svg" preserveAspectRatio="xMidYMid">
    <title>Vultr</title>
    <g>
        <path d="M511.482839,88.8564198 L498.61043,66.6570306 C507.353289,62.928715 512.266419,53.5640237 510.365385,44.251452 C508.46435,34.9388803 500.27392,28.2491021 490.769294,28.2457 L462.52355,28.2457 C461.585946,28.2418301 460.685608,28.6125528 460.022616,29.275545 C459.359623,29.9385372 458.988901,30.8388751 458.992771,31.7764794 L458.992771,90.6217788 C458.992771,92.5717405 460.573588,94.1524982 462.52355,94.1524982 L464.877362,94.1524982 C466.827324,94.1524982 468.40808,92.5717405 468.40808,90.6217788 L468.40808,68.260565 L489.003935,68.260565 L503.009116,92.3871377 C503.640222,93.4802465 504.806859,94.153306 506.069072,94.1524982 L508.467017,94.1524982 C509.728826,94.153306 510.895153,93.4806747 511.526407,92.3881186 C512.157662,91.2955625 512.157878,89.949178 511.526973,88.8564198 L511.482839,88.8564198 Z M468.40808,37.6610093 L490.769294,37.6610093 C496.619179,37.6610093 501.361447,42.4032782 501.361447,48.2531632 C501.361447,54.1030482 496.619179,58.8453171 490.769294,58.8453171 L468.40808,58.8453171 L468.40808,37.6610093 Z M438.98543,28.2457304 C439.921835,28.2457304 440.819887,28.6177467 441.482025,29.2798847 C442.077949,29.875809 442.43885,30.6628235 442.50507,31.4969061 L442.516148,31.7764794 L442.516148,34.1302913 C442.516148,35.9990046 441.064377,37.5286386 439.227165,37.6528638 L438.98543,37.6610093 L418.978028,37.6610093 L418.978028,90.6217788 C418.970304,92.487283 417.522538,94.0124557 415.68862,94.1434092 L415.44731,94.1524967 L413.093498,94.1524967 C411.224785,94.1524967 409.695151,92.7007258 409.570926,90.8635134 L409.562781,90.6217788 L409.562781,37.6610093 L389.555379,37.6610093 C388.617774,37.6649406 387.717437,37.2942179 387.054444,36.6312257 C386.457751,36.0345327 386.097797,35.2455897 386.034616,34.4102545 L386.024599,34.1302913 L386.024599,31.7764794 C386.020729,30.8388751 386.391452,29.9385372 387.054444,29.275545 C387.651137,28.678852 388.44008,28.3188973 389.275416,28.2557167 L389.555379,28.2457304 L438.98543,28.2457304 Z M351.894387,28.2457 C352.831991,28.2418301 353.732329,28.6125528 354.395321,29.275545 C354.992014,29.8722379 355.351969,30.6611809 355.415127,31.4965161 L355.425105,31.7764794 L355.425105,84.7372488 L387.201567,84.7372488 C388.139171,84.7333175 389.039509,85.1040402 389.702501,85.7670324 C390.299194,86.3637254 390.659149,87.1526684 390.722329,87.9880036 L390.732316,88.2679668 L390.732316,90.6217788 C390.732316,92.490492 389.280516,94.0201261 387.443302,94.1443513 L387.201567,94.1524967 L349.540575,94.1524967 C347.671862,94.1524967 346.142199,92.7007258 346.017972,90.8635134 L346.009796,90.6217788 L346.009796,31.7764794 C346.005926,30.8388751 346.376649,29.9385372 347.039641,29.275545 C347.636334,28.678852 348.425277,28.3188973 349.260612,28.2557167 L349.540575,28.2457 L351.894387,28.2457 Z M327.179423,31.7764794 C327.183293,30.8388751 326.81257,29.9385372 326.149578,29.275545 C325.486586,28.6125528 324.586248,28.2418301 323.648643,28.2457 L321.294831,28.2457 C320.357227,28.2418301 319.456889,28.6125528 318.793897,29.275545 C318.130905,29.9385372 317.760182,30.8388751 317.764113,31.7764794 L317.764113,68.260565 C317.764113,78.0103734 309.860332,85.9141548 300.110524,85.9141548 C290.360715,85.9141548 282.456934,78.0103734 282.456934,68.260565 L282.456934,31.7764794 C282.456934,29.8265177 280.876178,28.2457 278.926216,28.2457 L276.572404,28.2457 C275.6348,28.2418301 274.734462,28.6125528 274.071469,29.275545 C273.408477,29.9385372 273.037755,30.8388751 273.041624,31.7764794 L273.041624,68.260565 C273.041624,83.2102713 285.160817,95.3294027 300.110524,95.3294027 C315.06023,95.3294027 327.179423,83.2102713 327.179423,68.260565 L327.179423,31.7764794 Z M255.388096,28.2456279 L253.166686,28.2456279 C251.719065,28.2368234 250.415215,29.1196996 249.886061,30.4671714 L229.496164,81.4272007 L209.106268,30.4671714 C208.577113,29.1196996 207.273263,28.2368234 205.825643,28.2456279 L203.604233,28.2456279 C202.432739,28.2456279 201.337258,28.8257722 200.679968,29.7954967 C200.022677,30.7652213 199.889178,31.9978221 200.323607,33.0857873 L223.861727,91.9310867 C224.394272,93.2758418 225.695996,94.1572783 227.142352,94.1525353 L231.849976,94.1525353 C233.296333,94.1572783 234.598057,93.2758418 235.130602,91.9310867 L258.668722,33.0857873 C259.10315,31.9978221 258.969651,30.7652213 258.312361,29.7954967 C257.65507,28.8257722 256.559589,28.2456279 255.388096,28.2456279 Z" fill="#142149"></path>
        <g transform="translate(0.000000, 0.000000)">
            <path d="M49.2088783,3.29535444 C47.9197044,1.24012571 45.6621687,-0.00541122332 43.2360804,-5.2265125e-15 L7.06093256,-5.2265125e-15 C4.48903493,-5.2265125e-15 2.12062275,1.39869264 0.87835905,3.65067806 C-0.363904647,5.90266348 -0.283544079,8.65197127 1.08813467,10.8275528 L8.44379709,22.5966126 L56.5645407,15.0644143 L49.2088783,3.29535444 Z" fill="#C9F4FF"></path>
            <path d="M56.623386,15.0644143 C55.3342122,13.0091856 53.0766765,11.7636487 50.6505881,11.7690599 L14.4754403,11.7690599 C11.9035427,11.7690599 9.53513047,13.1677525 8.29286678,15.4197379 C7.05060308,17.6717234 7.13096365,20.4210311 8.50264239,22.5966126 L18.8888377,39.0732965 L67.0095813,31.5410982 L56.623386,15.0644143 Z" fill="#51B9FF"></path>
            <path d="M18.8888377,39.0732965 C18.1814342,37.9442014 17.8043187,36.6395856 17.8001997,35.3071973 C17.8001997,31.4072739 20.9617123,28.2457437 24.8616356,28.2457437 L61.0367834,28.2457437 C63.4628718,28.2403325 65.7204075,29.4858694 67.0095813,31.5410982 L99.374496,82.8836219 C100.825337,85.1847605 100.825337,88.1146816 99.374496,90.4158202 L81.2942778,119.161749 C80.0009398,121.212464 77.7459706,122.456281 75.3214799,122.456281 C72.8969891,122.456281 70.6420199,121.212464 69.348682,119.161749 L18.8888377,39.0732965 Z" fill="#007BFC"></path>
            <path d="M110.113763,54.4319196 C111.402819,56.5027571 113.669359,57.7616706 116.108628,57.7616706 C118.547897,57.7616706 120.814438,56.5027571 122.103493,54.4319196 L128.282249,44.575332 L140.139577,25.7595475 C141.590418,23.4584089 141.590418,20.5284878 140.139577,18.2273492 L130.724329,3.29535444 C129.435155,1.24012571 127.17762,-0.00541122332 124.751531,-5.2265125e-15 L88.5763836,-5.2265125e-15 C86.0044859,-5.2265125e-15 83.6360738,1.39869264 82.3938101,3.65067806 C81.1515464,5.90266348 81.2319069,8.65197127 82.6035857,10.8275528 L110.113763,54.4319196 Z" fill="#007BFC"></path>
        </g>
    </g>
</svg>

<svg preserveAspectRatio="xMidYMid" viewBox="0 0 512 123" xmlns="http://www.w3.org/2000/svg">
  <path fill="#142149" d="M511.483 88.856 498.61 66.657a20.007 20.007 0 0 0-7.84-38.411h-28.246a3.516 3.516 0 0 0-3.531 3.53v58.846a3.53 3.53 0 0 0 3.53 3.53h2.354a3.53 3.53 0 0 0 3.531-3.53V68.26h20.596l14.005 24.126a3.53 3.53 0 0 0 3.06 1.765h2.398a3.53 3.53 0 0 0 3.06-5.296h-.044Zm-43.075-51.195h22.361c5.85 0 10.592 4.742 10.592 10.592 0 5.85-4.742 10.592-10.592 10.592h-22.36V37.661Zm-29.423-9.415a3.53 3.53 0 0 1 3.52 3.25l.011.28v2.354a3.53 3.53 0 0 1-3.289 3.523l-.242.008h-20.007v52.96a3.546 3.546 0 0 1-3.29 3.522l-.24.01h-2.355a3.53 3.53 0 0 1-3.522-3.29l-.008-.241V37.66h-20.008a3.516 3.516 0 0 1-3.52-3.25l-.01-.28v-2.355a3.516 3.516 0 0 1 3.25-3.52l.28-.01h49.43Zm-87.09 0a3.516 3.516 0 0 1 3.52 3.25l.01.28v52.961h31.777a3.516 3.516 0 0 1 3.52 3.251l.01.28v2.354a3.531 3.531 0 0 1-3.289 3.522l-.241.008H349.54a3.531 3.531 0 0 1-3.523-3.288l-.008-.242V31.776a3.516 3.516 0 0 1 3.25-3.52l.28-.01h2.354Zm-24.716 3.53a3.516 3.516 0 0 0-3.53-3.53h-2.354a3.516 3.516 0 0 0-3.53 3.53v36.485c0 9.75-7.905 17.653-17.654 17.653-9.75 0-17.654-7.904-17.654-17.653V31.776a3.53 3.53 0 0 0-3.53-3.53h-2.355a3.516 3.516 0 0 0-3.53 3.53v36.485c0 14.95 12.119 27.068 27.069 27.068s27.068-12.119 27.068-27.068V31.776Zm-71.79-3.53h-2.222a3.502 3.502 0 0 0-3.28 2.221l-20.39 50.96-20.39-50.96a3.502 3.502 0 0 0-3.281-2.221h-2.222a3.532 3.532 0 0 0-3.28 4.84l23.538 58.845a3.516 3.516 0 0 0 3.28 2.222h4.708a3.516 3.516 0 0 0 3.28-2.222l23.539-58.845a3.53 3.53 0 0 0-3.28-4.84Z"/>
  <path fill="#C9F4FF" d="M49.209 3.295A7.032 7.032 0 0 0 43.236 0H7.061a7.061 7.061 0 0 0-5.973 10.828l7.356 11.769 48.12-7.533L49.21 3.295Z"/>
  <path fill="#51B9FF" d="M56.623 15.064a7.032 7.032 0 0 0-5.972-3.295H14.475a7.061 7.061 0 0 0-5.972 10.828l10.386 16.476 48.12-7.532-10.386-16.477Z"/>
  <path fill="#007BFC" d="M18.889 39.073a7.135 7.135 0 0 1-1.089-3.766c0-3.9 3.162-7.061 7.062-7.061h36.175a7.032 7.032 0 0 1 5.973 3.295l32.364 51.343a7.061 7.061 0 0 1 0 7.532l-18.08 28.746a7.061 7.061 0 0 1-11.945 0l-50.46-80.089Z"/>
  <path fill="#007BFC" d="M110.114 54.432a7.061 7.061 0 0 0 11.99 0l6.178-9.857L140.14 25.76a7.061 7.061 0 0 0 0-7.533l-9.416-14.932A7.032 7.032 0 0 0 124.752 0H88.576a7.061 7.061 0 0 0-5.972 10.828l27.51 43.604Z"/>
</svg>
